Origami/64x64/apps/desmume.svg

<svg width="64" height="64" version="1.1" viewBox="0 0 64 64" xmlns="http://www.w3.org/2000/svg">
 <path d="m60 58.2v-27.2h-56v27.2c0 1.5512 1.2488 2.8 2.8 2.8h50.4c1.5512 0 2.8-1.2488 2.8-2.8z" style="opacity:.2"/>
 <rect transform="matrix(0,-1,-1,0,0,0)" x="-60" y="-60" width="56" height="56" rx="2.8" ry="2.8" style="fill:#9293ff"/>
 <path d="m60 57.2v-26.2h-56v26.2c0 1.5512 1.2488 2.8 2.8 2.8h50.4c1.5512 0 2.8-1.2488 2.8-2.8z" style="fill:#6469bb"/>
 <path d="m16 8h32v19h-32m0-19" style="fill:#3e3e3e"/>
 <path d="m20 37h24v18h-24m0-18" style="fill:#3e3e3e"/>
 <path d="m10 41v4h-4v4h4v4h4v-4h4v-4h-4v-4zm42 0a2 2 0 0 0 -2 2 2 2 0 0 0 2 2 2 2 0 0 0 2 -2 2 2 0 0 0 -2 -2zm-4 4a2 2 0 0 0 -2 2 2 2 0 0 0 2 2 2 2 0 0 0 2 -2 2 2 0 0 0 -2 -2zm8 0a2 2 0 0 0 -2 2 2 2 0 0 0 2 2 2 2 0 0 0 2 -2 2 2 0 0 0 -2 -2zm-4 4a2 2 0 0 0 -2 2 2 2 0 0 0 2 2 2 2 0 0 0 2 -2 2 2 0 0 0 -2 -2z" style="opacity:.2"/>
 <g transform="matrix(1.3333333,0,0,1.3333333,-7.3600006,22.76)" style="fill:#cccccc">
  <rect x="13.02" y="12.93" width="3" height="9" ry="0"/>
  <rect transform="rotate(90)" x="15.93" y="-19.02" width="3" height="9" ry="0"/>
 </g>
 <g transform="matrix(1.3333334,0,0,1.3333334,13.381305,1.0428551)" style="fill:#cccccc">
  <circle cx="31.964" cy="33.718" r="1.5" style="fill:#cccccc"/>
  <g transform="translate(-4.5559803,16.287855)" style="fill:#cccccc">
   <circle cx="30.52" cy="17.43" r="1.5" style="fill:#cccccc"/>
   <circle transform="rotate(90)" cx="14.43" cy="-33.52" r="1.5" style="fill:#cccccc"/>
  </g>
  <circle transform="rotate(90)" cx="36.718" cy="-28.964" r="1.5" style="fill:#cccccc"/>
 </g>
 <rect x="4" y="31" width="56" height="2" style="opacity:.2"/>
 <rect x="6" y="25" width="8" height="2" style="opacity:.2"/>
 <rect x="6" y="21" width="8" height="2" style="opacity:.2"/>
 <rect x="6" y="17" width="8" height="2" style="opacity:.2"/>
 <rect x="50" y="25" width="8" height="2" style="opacity:.2"/>
 <rect x="50" y="21" width="8" height="2" style="opacity:.2"/>
 <rect x="50" y="17" width="8" height="2" style="opacity:.2"/>
 <path d="M 6.8007812 4 C 5.2495812 4 4 5.2495812 4 6.8007812 L 4 7.8007812 C 4 6.2495813 5.2495812 5 6.8007812 5 L 57.199219 5 C 58.750419 5 60 6.2495812 60 7.8007812 L 60 6.8007812 C 60 5.2495813 58.750419 4 57.199219 4 L 6.8007812 4 z" style="fill:#ffffff;opacity:.2"/>
</svg>

<svg xmlns="http://www.w3.org/2000/svg" width="64" height="64" version="1.1" viewBox="0 0 64 64">
 <path style="opacity:0.2" d="M 60,58.2 V 31 H 4 V 58.2 C 4,59.7512 5.2488,61 6.8,61 h 50.4 c 1.5512,0 2.8,-1.2488 2.8,-2.8 z"/>
 <rect style="fill:#9293ff" width="56" height="56" x="-60" y="-60" rx="2.8" ry="2.8" transform="matrix(0,-1,-1,0,0,0)"/>
 <path style="fill:#6469bb" d="M 60,57.2 V 31 H 4 V 57.2 C 4,58.7512 5.2488,60 6.8,60 h 50.4 c 1.5512,0 2.8,-1.2488 2.8,-2.8 z"/>
 <path style="fill:#3e3e3e" d="M 16,8 H 48 V 27 H 16 M 16,8"/>
 <path style="fill:#3e3e3e" d="M 20,37 H 44 V 55 H 20 m 0,-18"/>
 <path style="opacity:0.2" d="m 10,41 v 4 H 6 v 4 h 4 v 4 h 4 v -4 h 4 v -4 h -4 v -4 z m 42,0 a 2,2 0 0 0 -2,2 2,2 0 0 0 2,2 2,2 0 0 0 2,-2 2,2 0 0 0 -2,-2 z m -4,4 a 2,2 0 0 0 -2,2 2,2 0 0 0 2,2 2,2 0 0 0 2,-2 2,2 0 0 0 -2,-2 z m 8,0 a 2,2 0 0 0 -2,2 2,2 0 0 0 2,2 2,2 0 0 0 2,-2 2,2 0 0 0 -2,-2 z m -4,4 a 2,2 0 0 0 -2,2 2,2 0 0 0 2,2 2,2 0 0 0 2,-2 2,2 0 0 0 -2,-2 z"/>
 <g style="fill:#cccccc" transform="matrix(1.3333333,0,0,1.3333333,-7.3600006,22.76)">
  <rect width="3" height="9" x="13.02" y="12.93" ry="0"/>
  <rect width="3" height="9" x="15.93" y="-19.02" ry="0" transform="rotate(90)"/>
 </g>
 <g style="fill:#cccccc" transform="matrix(1.3333334,0,0,1.3333334,13.381305,1.0428551)">
  <circle style="fill:#cccccc" cx="31.964" cy="33.718" r="1.5"/>
  <g style="fill:#cccccc" transform="translate(-4.5559803,16.287855)">
   <circle style="fill:#cccccc" cx="30.52" cy="17.43" r="1.5"/>
   <circle style="fill:#cccccc" cx="14.43" cy="-33.52" r="1.5" transform="rotate(90)"/>
  </g>
  <circle style="fill:#cccccc" cx="36.718" cy="-28.964" r="1.5" transform="rotate(90)"/>
 </g>
 <rect style="opacity:0.2" width="56" height="2" x="4" y="31"/>
 <rect style="opacity:0.2" width="8" height="2" x="6" y="25"/>
 <rect style="opacity:0.2" width="8" height="2" x="6" y="21"/>
 <rect style="opacity:0.2" width="8" height="2" x="6" y="17"/>
 <rect style="opacity:0.2" width="8" height="2" x="50" y="25"/>
 <rect style="opacity:0.2" width="8" height="2" x="50" y="21"/>
 <rect style="opacity:0.2" width="8" height="2" x="50" y="17"/>
 <path style="opacity:0.2;fill:#ffffff" d="M 6.8007812 4 C 5.2495812 4 4 5.2495812 4 6.8007812 L 4 7.8007812 C 4 6.2495813 5.2495812 5 6.8007812 5 L 57.199219 5 C 58.750419 5 60 6.2495812 60 7.8007812 L 60 6.8007812 C 60 5.2495813 58.750419 4 57.199219 4 L 6.8007812 4 z"/>
</svg>
